X:29
T:Cregg's Pipes (r)
B:NFID.169a ("untitled reel")
029cregg
S:F&MB
L:1/8
M:C
R:reel
Q:360
K:G
B3d BAGA|B2GB AGED|B2GA BGdG|AdBG AGED|
B3d BAGA|B2GB AGED|Eeed BcdB|AdBe AGFE||
%B
DGBG DGBG|DGBG AGEG|DGBA BABc|dBAd BGG2|
DGBG DGBG|DGBG AGEG|DGGA BABc|dBAd BGGB||
%C
d2Bd efge|dBGB AGED|d2Bd efgb|agbg ageg|
d3d efge|d2GB AGED|d2Bd efgb|agbg ageg||

%%%

